X: 6
T:Red Wing - G
M:4/4
L:1/4
C:
S:AB form
R:Key of G
K:G
D|:GG/2G/2GB|d3B|cege|d3B|cBAc|BAGB|
||:e2ee|egfe|d2B2|Bded|d2A2|Aded|d2B2|B2gf|

